docs/.gitbook/assets/icon-delete-document-16@light.svg

<svg width="32" height="32" viewBox="0 0 16 16" fill="none" xmlns="http://www.w3.org/2000/svg">
<rect x="0" y="0" width="16" height="16" fill="#fff"/>
<path fill-rule="evenodd" clip-rule="evenodd" d="M4.75 2.5C4.05964 2.5 3.5 3.05964 3.5 3.75V12.25C3.5 12.9404 4.05964 13.5 4.75 13.5H7.25C7.66421 13.5 8 13.8358 8 14.25C8 14.6642 7.66421 15 7.25 15H4.75C3.23122 15 2 13.7688 2 12.25V3.75C2 2.23122 3.23122 1 4.75 1H8.58579C9.04992 1 9.49503 1.18437 9.82322 1.51256L13.7286 5.41789C13.9024 5.5917 14 5.82743 14 6.07322C14 6.58507 13.5851 7 13.0732 7H9.75C8.7835 7 8 6.2165 8 5.25V2.5H4.75ZM9.5 3.31066V5.25C9.5 5.38807 9.61193 5.5 9.75 5.5H11.6893L9.5 3.31066ZM10.2197 10.2197C10.5126 9.92678 10.9874 9.92678 11.2803 10.2197L12.5 11.4393L13.7197 10.2197C14.0126 9.92678 14.4874 9.92678 14.7803 10.2197C15.0732 10.5126 15.0732 10.9874 14.7803 11.2803L13.5607 12.5L14.7803 13.7197C15.0732 14.0126 15.0732 14.4874 14.7803 14.7803C14.4874 15.0732 14.0126 15.0732 13.7197 14.7803L12.5 13.5607L11.2803 14.7803C10.9874 15.0732 10.5126 15.0732 10.2197 14.7803C9.92678 14.4874 9.92678 14.0126 10.2197 13.7197L11.4393 12.5L10.2197 11.2803C9.92678 10.9874 9.92678 10.5126 10.2197 10.2197Z" fill="#000"/>
</svg>

<svg xmlns="http://www.w3.org/2000/svg" width="32" height="32" fill="none" viewBox="0 0 16 16"><path fill="#fff" d="M0 0h16v16H0z"/><path fill="#000" fill-rule="evenodd" d="M4.75 2.5c-.69 0-1.25.56-1.25 1.25v8.5c0 .69.56 1.25 1.25 1.25h2.5a.75.75 0 0 1 0 1.5h-2.5A2.75 2.75 0 0 1 2 12.25v-8.5A2.75 2.75 0 0 1 4.75 1h3.836c.464 0 .909.184 1.237.513l3.906 3.905A.927.927 0 0 1 13.073 7H9.75A1.75 1.75 0 0 1 8 5.25V2.5zm4.75.81v1.94c0 .138.112.25.25.25h1.94zm.72 6.91a.75.75 0 0 1 1.06 0l1.22 1.22 1.22-1.22a.75.75 0 1 1 1.06 1.06l-1.22 1.22 1.22 1.22a.75.75 0 1 1-1.06 1.06l-1.22-1.22-1.22 1.22a.75.75 0 1 1-1.06-1.06l1.22-1.22-1.22-1.22a.75.75 0 0 1 0-1.06" clip-rule="evenodd"/></svg>
